<?xml version="1.0" encoding="UTF-8"?>
<map version="1.10" tiledversion="1.12.1" orientation="orthogonal" renderorder="right-down" width="16" height="12" tilewidth="16" tileheight="16" infinite="0" nextlayerid="4" nextobjectid="1">
 <tileset firstgid="1" source="textures_v2.tsx"/>
 <layer id="2" name="Floor layer" width="16" height="12">
  <data encoding="csv">
0,0,0,0,0,0,0,0,0,0,0,0,0,0,0,0,
0,0,0,0,8,9,9,9,9,9,9,9,9,9,10,0,
0,0,0,0,18,19,19,19,19,19,19,19,19,19,20,0,
0,0,0,0,28,29,19,19,19,19,29,29,19,19,20,0,
0,0,0,0,0,0,18,19,19,20,0,0,18,19,20,0,
0,0,0,0,0,0,18,19,19,20,0,0,18,19,20,0,
0,0,0,0,0,0,18,19,19,20,0,0,18,19,20,0,
0,0,0,0,0,0,18,19,19,20,0,0,18,19,20,0,
0,0,8,9,9,9,19,19,19,20,0,0,18,19,20,0,
0,0,18,19,19,19,19,19,19,20,0,0,18,19,20,0,
0,0,28,29,29,29,29,29,29,30,0,0,28,29,30,0,
0,0,0,0,0,0,0,0,0,0,0,0,0,0,0,0
</data>
 </layer>
 <layer id="3" name="Interact layer" width="16" height="12">
  <data encoding="csv">
0,0,0,0,0,0,0,0,0,0,0,0,0,0,0,0,
0,0,0,0,0,0,0,0,0,0,0,0,0,0,0,0,
0,0,0,0,0,11,0,0,0,0,0,0,0,11,0,0,
0,0,0,0,0,0,0,0,0,0,0,0,0,0,0,0,
0,0,0,0,0,0,0,0,0,0,0,0,0,0,0,0,
0,0,0,0,0,0,0,0,0,0,0,0,0,0,0,0,
0,0,0,0,0,0,0,0,0,0,0,0,0,0,0,0,
0,0,0,0,0,0,0,0,0,0,0,0,0,0,0,0,
0,0,0,0,0,0,0,0,0,0,0,0,0,13,0,0,
0,0,0,13,0,0,0,0,0,0,0,0,0,0,0,0,
0,0,0,0,0,0,0,0,0,0,0,0,0,0,0,0,
0,0,0,0,0,0,0,0,0,0,0,0,0,0,0,0
</data>
 </layer>
 <layer id="1" name="Wall layer" width="16" height="12">
  <data encoding="csv">
16,16,16,5,6,6,6,6,6,6,6,6,6,6,6,7,
16,16,16,15,0,0,0,0,0,0,0,0,0,0,0,17,
16,16,16,15,0,0,0,0,0,0,0,0,0,0,0,17,
16,16,16,15,0,0,0,0,0,0,0,0,0,0,0,17,
16,16,16,25,26,40,0,0,0,0,39,40,0,0,0,17,
16,16,16,16,16,15,0,0,0,0,17,15,0,0,0,17,
16,16,16,16,16,15,0,0,0,0,17,15,0,0,0,0,
16,5,6,6,6,50,0,0,0,0,17,15,0,0,0,17,
16,15,0,0,0,0,0,0,0,0,17,15,0,0,0,17,
16,15,0,0,0,0,0,0,0,0,17,15,0,0,0,17,
16,15,0,0,0,0,0,0,0,0,17,15,0,0,0,17,
16,25,26,26,26,26,26,0,26,26,27,25,26,26,26,27
</data>
 </layer>
</map>
