<?xml version="1.0" encoding="UTF-8"?>
<map version="1.10" tiledversion="1.12.1" orientation="orthogonal" renderorder="right-down" width="16" height="12" tilewidth="16" tileheight="16" infinite="0" nextlayerid="4" nextobjectid="2">
 <tileset firstgid="1" source="img/map_v1.tsx"/>
 <layer id="1" name="Floor layer" width="16" height="12">
  <data encoding="csv">
0,0,0,0,0,0,0,18,20,0,0,0,0,0,0,0,
0,0,0,0,0,8,9,19,19,9,9,10,0,0,0,0,
0,0,0,0,0,18,19,19,19,19,19,20,0,0,0,0,
0,0,0,0,0,18,19,19,19,19,19,20,0,0,0,0,
0,0,0,0,0,18,19,19,19,19,19,19,9,9,10,0,
0,0,0,0,0,18,19,19,19,19,19,19,19,19,20,0,
0,0,0,0,0,18,19,19,19,19,19,19,19,19,20,0,
0,0,0,0,0,18,19,19,19,19,19,19,29,29,30,0,
0,0,0,0,0,18,19,19,19,19,19,20,0,0,0,0,
0,0,0,0,0,28,29,29,29,29,29,30,0,0,0,0,
0,0,0,0,0,0,0,0,0,0,0,0,0,0,0,0,
0,0,0,0,0,0,0,0,0,0,0,0,0,0,0,0
</data>
 </layer>
 <layer id="3" name="Wall layer" width="16" height="12">
  <data encoding="csv">
16,16,16,16,39,26,27,0,0,25,26,26,40,16,16,16,
16,16,16,16,17,0,0,0,0,0,0,0,15,16,16,16,
16,16,16,16,17,0,0,0,0,0,0,0,15,16,16,16,
16,16,16,16,17,0,0,0,0,0,0,0,25,26,26,40,
16,16,16,16,17,0,0,0,0,0,0,0,0,0,0,15,
16,16,16,16,17,0,0,0,0,0,0,0,0,13,0,15,
16,16,16,16,17,0,0,0,0,0,0,0,0,12,0,15,
16,16,16,16,17,0,0,0,0,0,0,0,0,0,0,15,
16,16,16,16,17,0,0,0,0,0,0,0,5,6,6,50,
16,16,16,16,17,0,0,0,0,0,0,0,15,16,16,16,
16,16,16,16,49,6,6,6,6,6,6,6,50,16,16,16,
16,16,16,16,16,16,16,16,16,16,16,16,16,16,16,16
</data>
 </layer>
 <objectgroup id="2" name="Object Layer 1">
  <object id="1" x="112" y="80">
   <point/>
  </object>
 </objectgroup>
</map>
